src/assets/img/games/cup.svg

<svg xmlns:xlink="http://www.w3.org/1999/xlink" height="58.45" width="59" xmlns="http://www.w3.org/2000/svg"><g transform="translate(1 .95)"><use height="58.45" transform="translate(-1 -.95)" width="59" xlink:href="#a"/><use height="40.85" transform="translate(8.25 15.05) scale(.7102)" width="56.65" xlink:href="#b"/></g><defs><path d="m51.05 3.95-1.1 4.4q4-.25 6 3.45 2.15 3.95-2.1 7.6-3.6 3.15-8.75 3.25h-.2l-1.55-.05q-4.85 6.25-11.05 7.6v2.2q3.45.25 6.1 1.1 4.05 1.25 4.05 3.05 0 1.8-4.05 3.05-4 1.25-9.7 1.25-5.7 0-9.75-1.25-4-1.25-4-3.05 0-1.8 4-3.05 2.85-.9 6.55-1.15V30.3q-6.85-1.35-12.1-8.5l-1.65.05h-.2q-5.15-.1-8.75-3.25Q-1.45 14.95.7 11q2.15-3.95 6.6-3.4l-.85-3.45h.05V4.1q1.75-1.7 6.55-2.7Q19.9 0 28.7 0t15.35 1.3q4.8.9 6.4 2.05l.55.5.05.1m-.75.75.65-.65-.4.35-.25.3m2.85 10.6q-.35-3.25-1.9-3.6-1.2-.3-2.05-.75-1.85 5.6-4.05 9.15 8.3-1.65 8-4.8M5.4 10.9q-1.55.35-1.9 3.6-.35 3.2 8.3 4.85Q9.55 15.5 7.95 9.9q-1 .6-2.55 1" fill="#f39" fill-rule="evenodd" id="c"/><use height="40.85" width="56.65" xlink:href="#c" id="b"/><g id="a"><path d="M50.85 23.5 57 27.3l-5.9 4.15 4.55 5.6L48.7 39l2.3 6.8-7.25-.6-.1 7.3-6.55-3.1-2.65 6.75-5.1-5.15-4.75 5.5-3.1-6.55-6.35 3.45-.6-7.2-7.2 1.15L9.2 40.3l-7.1-1.35 4.1-5.9L0 29.2l5.95-4.1-4.55-5.65 7-1.95-2.3-6.8 7.2.6.1-7.25 6.65 3L22.6.35l5.2 5.1 4.75-5.4L35.6 6.5l6.35-3.4.65 7.15 7.15-1.05-1.85 6.95 7.1 1.4-4.15 5.95m-31.5 6.45q0 1.3.5 1.65l.1-.05h-.1q-.4-.2-.5-1.6m17.2 1.2h.15-.15L36 31q-1.75-.8-3.45-.3l-1 .3 1-.25q1.7-.55 3.4.25l.6.15m-11.4-3.8.1.15.25-.15h-.35m.2 2.85.05-.05h-.15l-.1.05h.2m-.05.85.85.05-.85-.05-2.65-.25-.45.15.4-.1 2.7.2" fill="#fff" fill-rule="evenodd" transform="translate(1 .95)"/><path d="m51.85 24.45 6.15 3.8-5.9 4.15 4.55 5.6-6.95 1.95 2.3 6.8-7.25-.6-.1 7.3-6.55-3.1-2.65 6.75-5.1-5.15-4.75 5.5-3.1-6.55-6.35 3.45-.6-7.2-7.2 1.15 1.85-7.05-7.1-1.35L7.2 34 1 30.15l5.95-4.1L2.4 20.4l7-1.95-2.3-6.8 7.2.6.1-7.25 6.65 3 2.55-6.7 5.2 5.1L33.55 1l3.05 6.45 6.35-3.4.65 7.15 7.15-1.05-1.85 6.95 7.1 1.4-4.15 5.95Z" fill="none" stroke="#f09" stroke-linecap="round" stroke-linejoin="round" stroke-width="2"/></g></defs></svg>

<?xml version="1.0" encoding="UTF-8" standalone="no"?>
<svg xmlns:xlink="http://www.w3.org/1999/xlink" height="58.45px" width="59.0px" xmlns="http://www.w3.org/2000/svg">
  <g transform="matrix(1.0, 0.0, 0.0, 1.0, 1.0, 0.95)">
    <use height="58.45" transform="matrix(1.0, 0.0, 0.0, 1.0, -1.0, -0.95)" width="59.0" xlink:href="#shape0"/>
    <use height="40.85" transform="matrix(0.7102, 0.0, 0.0, 0.7102, 8.25, 15.05)" width="56.65" xlink:href="#sprite0"/>
  </g>
  <defs>
    <g id="shape0" transform="matrix(1.0, 0.0, 0.0, 1.0, 1.0, 0.95)">
      <path d="M50.85 23.5 L57.0 27.3 51.1 31.45 55.65 37.05 48.7 39.0 51.0 45.8 43.75 45.2 43.65 52.5 37.1 49.4 34.45 56.15 29.35 51.0 24.6 56.5 21.5 49.95 15.15 53.4 14.55 46.2 7.35 47.35 9.2 40.3 2.1 38.95 6.2 33.05 0.0 29.2 5.95 25.1 1.4 19.45 8.4 17.5 6.1 10.7 13.3 11.3 13.4 4.05 20.05 7.05 22.6 0.35 27.8 5.45 32.55 0.05 35.6 6.5 41.95 3.1 42.6 10.25 49.75 9.2 47.9 16.15 55.0 17.55 50.85 23.5 M19.35 29.95 Q19.35 31.25 19.85 31.6 L19.95 31.55 19.85 31.55 Q19.45 31.35 19.35 29.95 M36.55 31.15 L36.7 31.15 36.55 31.15 36.0 31.0 Q34.25 30.2 32.55 30.7 L31.55 31.0 32.55 30.75 Q34.25 30.2 35.95 31.0 L36.55 31.15 M25.15 27.35 L25.25 27.5 25.5 27.35 25.15 27.35 M25.35 30.2 L25.4 30.15 25.35 30.15 25.25 30.15 25.15 30.2 25.35 30.2 M25.3 31.05 L26.15 31.1 25.3 31.05 22.65 30.8 22.2 30.95 22.6 30.85 25.3 31.05" fill="#ffffff" fill-rule="evenodd" stroke="none"/>
      <path d="M50.85 23.5 L57.0 27.3 51.1 31.45 55.65 37.05 48.7 39.0 51.0 45.8 43.75 45.2 43.65 52.5 37.1 49.4 34.45 56.15 29.35 51.0 24.6 56.5 21.5 49.95 15.15 53.4 14.55 46.2 7.35 47.35 9.2 40.3 2.1 38.95 6.2 33.05 0.0 29.2 5.95 25.1 1.4 19.45 8.4 17.5 6.1 10.7 13.3 11.3 13.4 4.05 20.05 7.05 22.6 0.35 27.8 5.45 32.55 0.05 35.6 6.5 41.95 3.1 42.6 10.25 49.75 9.2 47.9 16.15 55.0 17.55 50.85 23.5 Z" fill="none" stroke="#ff0099" stroke-linecap="round" stroke-linejoin="round" stroke-width="2.0"/>
    </g>
    <g id="sprite0" transform="matrix(1.0, 0.0, 0.0, 1.0, 0.0, 0.0)">
      <use height="40.85" transform="matrix(1.0, 0.0, 0.0, 1.0, 0.0, 0.0)" width="56.65" xlink:href="#shape1"/>
    </g>
    <g id="shape1" transform="matrix(1.0, 0.0, 0.0, 1.0, 0.0, 0.0)">
      <path d="M51.05 3.95 L49.95 8.35 Q53.95 8.1 55.95 11.8 58.1 15.75 53.85 19.4 50.25 22.55 45.1 22.65 L44.9 22.65 43.35 22.6 Q38.5 28.85 32.3 30.2 L32.3 32.4 Q35.75 32.65 38.4 33.5 42.45 34.75 42.45 36.55 42.45 38.35 38.4 39.6 34.4 40.85 28.7 40.85 23.0 40.85 18.95 39.6 14.95 38.35 14.95 36.55 14.95 34.75 18.95 33.5 21.8 32.6 25.5 32.35 L25.5 30.3 Q18.65 28.95 13.4 21.8 L11.75 21.85 11.55 21.85 Q6.4 21.75 2.8 18.6 -1.45 14.95 0.7 11.0 2.85 7.05 7.3 7.6 L6.45 4.15 6.5 4.15 6.5 4.1 Q8.25 2.4 13.05 1.4 19.9 0.0 28.7 0.0 37.5 0.0 44.05 1.3 48.85 2.2 50.45 3.35 L51.0 3.85 51.05 3.95 M50.3 4.7 L50.95 4.05 50.55 4.4 50.3 4.7 M53.15 15.3 Q52.8 12.05 51.25 11.7 50.05 11.4 49.2 10.95 47.35 16.55 45.15 20.1 53.45 18.45 53.15 15.3 M5.4 10.9 Q3.85 11.25 3.5 14.5 3.15 17.7 11.8 19.35 9.55 15.5 7.95 9.9 6.95 10.5 5.4 10.9" fill="#ff3399" fill-rule="evenodd" stroke="none"/>
    </g>
  </defs>
</svg>
